X:110
T: IN TRAUERN UND UNRUH
N: E0706
O: Europa, Mitteleuropa, Deutschland, Franken, Koenigshofen im Grabfelde
R: Liebes - Lied, Leid, Klage
M: 4/4
L: 1/8
K: F
C2 | F2F2FGAB | G6
C2 | G2G2GABc | A4z2
FA | c3AA3F | EGB2z2
G2 | B3GG3E | FAc2z2
C2 | F2F2FGAB | G6
B2 | A2BGF2E2 | F4z2

